X:326
T: HAR CHUELI ZUM BRUNNE
N: E1478
O: Europa, Mitteleuropa, Schweiz, Bern
R: Staende -, Hirten -, Alpen - Lied, Kuhreihen
M: 3/8
L: 1/16
K: G
d2 | d2dBd2 | c2A2
d2 | d2dBd2 | c2A2
d2 | A2A2AB | G2G2
d2 | A2A2AB | G2G2
d2 | A2A2B2 | G4
D2 | G2G2GA | B2B2z
G | B3ABc | d2d2
d2 | d2d2B2 | c2A2
d2 | d2d2B2 | c2A2
d2 | A2A2B2 | G2G2
d2 | A2A2B2 | G2G2
d2 | A4A2 | B4B2 | G4

@@@ Tune index: 5010
